dist/img/stack/stack-10.svg

<svg width="110" height="110" viewBox="0 0 110 110" fill="none" xmlns="http://www.w3.org/2000/svg">
<path d="M63.5293 19L87.3529 70.2677L89.829 31.1634L63.5293 19Z" fill="#B7B7BE"/>
<path d="M69.675 72.8721H41.0078L37.3479 81.7406L55.3414 92L73.3349 81.7406L69.675 72.8721Z" fill="#B7B7BE"/>
<path d="M45.9209 61.3697H64.7726L55.3418 38.4536L45.9209 61.3697Z" fill="#B7B7BE"/>
<path d="M47.154 19L20.8542 31.1634L23.3303 70.2677L47.154 19Z" fill="#B7B7BE"/>
</svg>

<svg width="110" height="110" viewBox="0 0 110 110" fill="none" xmlns="http://www.w3.org/2000/svg"><path d="M63.53 19l23.823 51.268 2.476-39.105L63.529 19zm6.145 53.872H41.008l-3.66 8.869L55.34 92l17.994-10.26-3.66-8.868zM45.92 61.37h18.853l-9.431-22.916L45.92 61.37zM47.154 19l-26.3 12.163 2.476 39.105L47.154 19z" fill="#B7B7BE"/></svg>
